src/assets/svg/rss.svg

<svg width="159" height="62" viewBox="0 0 159 62" fill="none" xmlns="http://www.w3.org/2000/svg">
<g clip-path="url(#clip0_4820_167)">
<path d="M90.1421 2.24378C85.5909 3.35221 83.3307 5.86665 83.3083 9.84636C83.2827 14.4805 85.7584 16.6085 93.6972 18.7785C97.5559 19.8325 98.8674 21.6594 97.0421 23.434C94.9705 25.4469 90.9167 24.1415 90.4062 21.295C90.1532 19.8745 90.1657 19.8786 85.9141 20.1266L82.1461 20.3457L82.3274 21.5898C82.6067 23.5077 84.1158 26.4686 85.4023 27.6231C89.2143 31.0428 99.7123 30.6921 103.306 27.0224L104.357 25.9491L104.559 27.1967C105.298 31.7868 109.744 36.0992 114.859 37.1884L116.502 37.539L115.531 38.872C112.329 43.2699 112.238 52.264 115.35 56.9354C120.112 64.0826 133.513 63.8752 137.922 56.5868L138.743 55.2304V61.6997H159.511V54.744H147.108V34.4796H138.743L138.726 37.5797C138.712 40.112 138.647 40.5715 138.366 40.0886C136.777 37.3551 133.682 35.0838 130.648 34.4273L129.012 34.0725L130.672 32.765C135.835 28.6964 139.05 21.2736 138.224 15.3313C136.053 -0.285128 114.599 -0.526927 106.428 14.971C105.901 15.9685 105.452 16.8172 105.43 16.8565C105.407 16.8958 104.672 16.1979 103.794 15.3086C101.974 13.4603 100.513 12.7838 95.5435 11.4935C90.92 10.2921 89.9739 9.44956 91.5277 7.91678C93.006 6.45978 96.2248 7.40356 96.9495 9.50743C97.3746 10.7399 97.2971 10.7281 102.212 10.3871L105.055 10.1894L104.873 9.00178C104.034 3.49963 97.4298 0.469206 90.1401 2.24585L90.1421 2.24378ZM1.7315 16.0291V29.6381H10.0967V18.7496H10.9469C12.2886 18.7496 13.1 19.7843 15.6867 24.7987L18.1059 29.4852L22.757 29.5686C25.3147 29.6147 27.4061 29.5706 27.4061 29.4714C27.4061 27.9387 22.1932 19.094 20.7465 18.1723L19.9534 17.6666L21.5539 16.789C27.4875 13.5319 26.364 4.20092 19.8614 2.73841C19.0408 2.55447 14.8851 2.4167 10.0823 2.4167H1.7315V16.0257V16.0291ZM128.384 4.78923C141.439 8.36181 140.243 27.5667 126.528 34.5782C112.554 41.7219 100.101 29.9943 106.743 15.9472C110.618 7.75145 120.53 2.64058 128.382 4.7913L128.384 4.78923ZM15.8608 8.55401C18.799 10.1116 16.8496 12.987 12.688 13.235L10.0974 13.39V8.16478L12.6217 8.16892C14.0665 8.17098 15.4508 8.33563 15.8608 8.55263V8.55401ZM123.766 10.9603C121.469 11.5996 119.133 14.0334 119.131 15.7887C119.127 18.6566 121.314 19.6906 124.754 18.4492C126.859 17.6901 127.395 17.6901 127.784 18.4513C128.444 19.7457 126.282 21.0649 125.02 20.137C124.386 19.672 122.049 21.1386 122.025 22.0163C121.988 23.3376 125.177 23.8377 127.131 22.8168C133.334 19.5755 131.573 12.6178 125.138 14.9448C122.566 15.8748 122.014 15.9155 122.014 15.1673C122.014 13.9935 123.763 13.1448 124.527 13.9446C124.839 14.2718 127.204 12.6274 127.204 12.0825C127.204 11.2689 125.109 10.5828 123.763 10.9589L123.766 10.9603ZM114.455 17.4861C113.078 18.5305 113.013 18.2591 115.537 22.0163C117.091 24.3275 117.688 25.469 117.629 26.0098C117.526 26.9343 116.537 27.1802 115.842 26.4534C115.401 25.9905 115.286 26.027 114.24 26.9666C111.6 29.3385 115.614 31.3741 118.596 29.1773C121.872 26.7634 121.878 25.2658 118.62 20.2782C116.094 16.4087 115.978 16.3316 114.453 17.4882L114.455 17.4861ZM8.57047 34.1834C3.85106 34.9639 1.08827 37.8573 1.05148 42.0574C1.01468 46.343 3.66446 48.7844 10.2281 50.5066C14.2511 51.5627 15.5757 52.3687 15.5757 53.7575C15.5757 57.669 8.89767 57.2777 8.19137 53.3256C7.94367 51.9464 7.9752 51.954 3.71571 52.1958L-0.0615234 52.4107L0.127043 53.6507C0.988402 59.3354 4.14081 61.7011 11.1644 61.9319C16.734 62.1137 18.6486 61.5482 21.0802 58.9986L22.7451 57.2529L23.3568 58.1189C26.8955 63.1367 38.8495 63.4743 42.7745 58.6652C43.9223 57.2605 45.2101 54.6138 45.3415 53.3952C45.4342 52.5368 45.4079 52.5216 41.9099 51.4091L38.3863 50.2876L37.9132 51.7797C36.3015 56.8658 30.2168 56.9236 28.8804 51.8672C28.4258 50.1484 28.4809 46.0433 28.9836 44.2743C30.1958 39.9983 35.316 39.1207 37.3935 42.8345C38.2601 44.3845 38.0275 44.3556 41.9598 43.4235C45.7035 42.5362 45.5426 42.6933 44.6891 40.7651C41.3034 33.1274 29.9225 31.3356 23.8877 37.4866L22.2044 39.2034L21.506 37.9537C19.7655 34.8379 14.2754 33.2376 8.57441 34.1834H8.57047ZM88.2663 34.191C85.0711 34.7724 81.9148 36.8804 80.1316 39.6215C79.6546 40.3559 79.6422 40.2959 79.627 37.426L79.6119 34.4769H71.2467V43.8527H62.8815V34.4769H54.5162V61.697H62.8815V50.8084H71.2467V61.697H79.6119V55.5431L80.5153 56.9712C84.2742 62.919 95.8989 63.9634 101.189 58.827C107.311 52.8847 106.11 39.3666 99.1289 35.6315C96.4344 34.1896 91.7058 33.562 88.2649 34.1882L88.2663 34.191ZM13.261 39.7676C13.7432 40.0293 14.3089 40.7382 14.6158 41.467L15.1427 42.7188L20.7786 42.4342L20.594 43.9767C20.3503 46.0172 20.2412 46.0943 18.6243 45.3448C17.8628 44.9921 15.732 44.308 13.8865 43.8217C9.51987 42.6747 8.97651 42.4287 8.75312 41.4967C8.3392 39.7724 11.2275 38.664 13.2636 39.7682L13.261 39.7676ZM93.213 40.8367C97.485 42.0808 98.3503 52.3611 94.3884 54.806C91.4298 56.6309 87.6861 55.0774 86.8083 51.6578C85.0639 44.8633 88.2958 39.4052 93.213 40.8367ZM128.088 40.8291C133.051 42.2744 132.95 53.969 127.962 55.3778C123.953 56.5089 121.284 53.5874 121.305 48.0886C121.327 42.375 123.909 39.6119 128.089 40.8305L128.088 40.8291Z" fill="black"/>
</g>
<defs>
<clipPath id="clip0_4820_167">
<rect width="159" height="62" fill="white"/>
</clipPath>
</defs>
</svg>

<svg width="159" height="62" fill="none" xmlns="http://www.w3.org/2000/svg"><g clip-path="url(#a)"><path d="M90.142 2.244c-4.551 1.108-6.811 3.623-6.834 7.602-.025 4.634 2.45 6.762 10.39 8.933 3.858 1.053 5.17 2.88 3.344 4.655-2.072 2.013-6.125.707-6.636-2.139-.253-1.42-.24-1.416-4.492-1.168l-3.768.219.181 1.244c.28 1.918 1.789 4.879 3.075 6.033 3.812 3.42 14.31 3.07 17.904-.6l1.051-1.074.202 1.248c.739 4.59 5.185 8.902 10.3 9.991l1.643.351-.971 1.333c-3.202 4.398-3.293 13.392-.181 18.063 4.762 7.148 18.163 6.94 22.572-.348l.821-1.357v6.47h20.768v-6.956h-12.403V34.48h-8.365l-.017 3.1c-.014 2.532-.079 2.992-.36 2.509-1.589-2.734-4.684-5.005-7.718-5.662l-1.636-.355 1.66-1.307c5.163-4.069 8.378-11.491 7.552-17.434-2.171-15.616-23.625-15.858-31.796-.36l-.998 1.886c-.023.039-.758-.66-1.636-1.548-1.82-1.849-3.281-2.525-8.25-3.816-4.624-1.2-5.57-2.043-4.016-3.576 1.478-1.457 4.697-.513 5.421 1.59.426 1.233.348 1.221 5.263.88l2.843-.198-.182-1.187C104.034 3.5 97.43.469 90.14 2.246l.002-.002zM1.732 16.029v13.61h8.365v-10.89h.85c1.342 0 2.153 1.035 4.74 6.05l2.419 4.686 4.651.084c2.558.046 4.65.002 4.65-.098 0-1.532-5.214-10.377-6.66-11.299l-.794-.505 1.6-.878c5.934-3.257 4.811-12.588-1.692-14.05-.82-.185-4.976-.322-9.779-.322h-8.35v13.612zM128.383 4.79c13.055 3.573 11.859 22.778-1.856 29.79-13.974 7.143-26.427-4.585-19.785-18.632 3.875-8.196 13.787-13.306 21.639-11.156l.002-.002zM15.861 8.554c2.938 1.558.989 4.433-3.173 4.681l-2.59.155V8.165l2.524.004c1.444.002 2.829.167 3.239.384v.001zm107.905 2.406c-2.297.64-4.633 3.073-4.635 4.829-.004 2.868 2.183 3.902 5.623 2.66 2.105-.759 2.641-.759 3.03.002.66 1.295-1.502 2.614-2.764 1.686-.634-.465-2.971 1.002-2.995 1.88-.037 1.32 3.152 1.82 5.106.8 6.203-3.241 4.442-10.2-1.993-7.872-2.572.93-3.124.97-3.124.222 0-1.174 1.749-2.022 2.513-1.222.312.327 2.677-1.318 2.677-1.863 0-.813-2.095-1.5-3.441-1.123l.003.001zm-9.311 6.526c-1.377 1.044-1.442.773 1.082 4.53 1.554 2.312 2.151 3.453 2.092 3.994-.103.924-1.092 1.17-1.787.443-.441-.462-.556-.426-1.602.514-2.64 2.372 1.374 4.407 4.356 2.21 3.276-2.414 3.282-3.911.024-8.899-2.526-3.87-2.642-3.946-4.167-2.79l.002-.002zM8.57 34.183c-4.719.78-7.482 3.674-7.519 7.874-.036 4.286 2.613 6.727 9.177 8.45 4.023 1.056 5.348 1.862 5.348 3.25 0 3.912-6.678 3.52-7.385-.431-.247-1.38-.216-1.372-4.475-1.13l-3.778.215.189 1.24c.861 5.684 4.014 8.05 11.037 8.28 5.57.183 7.485-.383 9.916-2.932l1.665-1.746.612.866c3.538 5.018 15.492 5.355 19.418.546 1.147-1.404 2.435-4.051 2.567-5.27.092-.858.066-.873-3.432-1.986l-3.524-1.121-.473 1.492c-1.611 5.086-7.696 5.144-9.033.087-.454-1.719-.4-5.824.104-7.593 1.212-4.276 6.332-5.153 8.41-1.44.866 1.55.634 1.522 4.566.59 3.743-.888 3.583-.73 2.73-2.659-3.387-7.638-14.767-9.43-20.802-3.278l-1.684 1.716-.698-1.25c-1.74-3.115-7.23-4.715-12.932-3.77H8.57zm79.696.008c-3.195.581-6.351 2.69-8.134 5.43-.477.735-.49.675-.505-2.195l-.015-2.95h-8.365v9.377h-8.365v-9.376h-8.366v27.22h8.366V50.808h8.365v10.889h8.365v-6.154l.903 1.428c3.76 5.948 15.384 6.992 20.674 1.856 6.122-5.942 4.921-19.46-2.06-23.195-2.695-1.442-7.423-2.07-10.864-1.444l.001.003zm-75.005 5.577c.482.261 1.048.97 1.355 1.699l.527 1.252 5.636-.285-.185 1.543c-.244 2.04-.353 2.117-1.97 1.368-.761-.353-2.892-1.037-4.737-1.523-4.367-1.147-4.91-1.393-5.134-2.325-.414-1.725 2.474-2.833 4.51-1.729h-.002zm79.952 1.069c4.272 1.244 5.137 11.524 1.175 13.969-2.958 1.825-6.702.271-7.58-3.148-1.744-6.795 1.488-12.253 6.405-10.821zm34.875-.008c4.963 1.445 4.862 13.14-.126 14.549-4.009 1.13-6.678-1.79-6.657-7.29.022-5.713 2.604-8.476 6.784-7.258h-.001z" fill="#000"/></g><defs><clipPath id="a"><path fill="#fff" d="M0 0h159v62H0z"/></clipPath></defs></svg>
